X: 22
T:Up and War them Willie. JMP.022
M:2/4
L:1/8
Q:200
C:"23...A Quick March"
S:John Miller MS. Perth, 1799.(for the fife)
R:March
O:Scotland
A:Perth
N:
H:1799
Z:vmp.C. Graebe
K:G major
B | G/G/G BG | c2ce | G/G/G BG | A2 AB |!
G/G/G BG | cdeg | dcBA | G2 "cr"G :|!
|:d| gedB | c2 ce | gedB | A2Ad |! 
gedB | cdeg | dcBA | G2 "cr"G :|]
